X: 21
T:Lilting Fisherman, The
T:A Bit of Ginger
M:6/8
L:1/8
R:Double Jig
K:G
B[|:dBG GBd|gfg ege|dBG GFG|AFD cBc|!
dBG GBd|gfg ege|dBG FGA|1BGG G2B:|2BGG GFG|!
K:D
|:ABA AFA|fgf f2e|dce dcB|AFF F2G|!
AFA AFA|BGB Bcd|cec ABc|1dfe dFG:|2dfe dB=c|]!
